X:1
T:My Rest
T:My Rest
T:John Robson Sweney
T:Frances Jane (Fanny) Crosby, 1900
T:Public Domain Courtesy of the Cyber Hymnal™
T:Public Domain Courtesy of the Cyber Hymnal™
C:John Robson Sweney
Z:Public Domain
Z:Courtesy of the Cyber Hymnal™
%%score ( 1 2 ) ( 3 4 )
L:1/8
Q:1/4=100
M:4/4
K:Ab
V:1 treble 
V:2 treble 
V:3 bass 
V:4 bass 
V:1
 [CE]3 [CE] [DF][CE] [A,C]>[B,D] | [CE]4 [CA]4 | [B,G]3 [CA] [DB][DE] [DB]>[=D=B] | [Ec]6 z2 | %4
w: 1.~Deep and deep- er fell the|sha- dows,|Near- er seemed the gold- en|strand,|
w: 2.~Near- er seemed the shin- ing|por- tals,|But the Mas- ter said to|me,|
w: 3.~In the si- lent hours of|mid- night,|When my wak- ing thoughts take|wings,|
 [Ec]3 [Ed] [Ee][Ec] [=Ec]>[EB] | [FB]4 [FA]4 | [FA]3 [FA] [Ac][AB] [A=d]>[AB] | [Ge]6 z2 | %8
w: And my trust- ing heart was|wait- ing,|Pass- ive in my Sav- ior’s|hands;|
w: “There are sheaves that must be|gar- nered|Ere the reap- ing dawns for|thee;|
w: O the tran- quil peace He|gives me,|And the hal- lowed songs He|brings!|
 [Ge]3 [Gd] [DF][DG] [Ec]>[DB] | [CA]4 [CE]4 | [DF]3 [EG] [FB][FA] [Fd]>[DF] | [CE]6 z2 | %12
w: O how bright- ly o’er my|spir- it|Came a ra- diance from a-|far,|
w: Yet I know that thou wert|wear- y,|And I bade thy heart re-|pose|
w: He has crowned me with His|bless- ing,|And I now by faith can|say,|
 [CA]3 [DB] [Ec][_Ge] [Ge]>[Gc] | [FB]4 [Fd]4 | [EG]3 [EA] [EB]E [Ec]>[DB] | [CA]6 || %16
w: Like the blush of ear- ly|morn- ing,|Like the ris- ing of a|star.|
w: By a heal- ing stream that|mur- murs|Where the Rose of Shar- on|grows.”|
w: I am go- ing forth with|vi- gor,|Still re- joic- ing on my|way.|
"^Refrain" c>G | B (z A2) [CA]>[CE] x2 | [EG] [DF]3- [DF]2 [DB]>[DA] | %19
w: |||
w: I was|wait- * ing, calm-|ly wait- * ing, Not|
w: |||
 [DG]3 [DF] [DE]2 ([DB]>[=D=B]) | [Ec]6 c>G | B (z A2) [CA]>[CE] x2 | [EG] [DF]3- [DF]2 [Fd]>[Fd] | %23
w: ||||
w: a fear was in *|my breast; I|had * trust- ed|my Re- * deem- er,|
w: ||||
 [Ec]3 [EA] [EG]2 [EB]2 | [EA]6 |] %25
w: ||
w: And in Him was|now|
w: ||
V:2
 x8 | x8 | x8 | x8 | x8 | x8 | x8 | x8 | x8 | x8 | x8 | x8 | x8 | x8 | x5 E x2 | x6 || x2 | %17
 x (A3- E>EEE) | x8 | x8 | x8 | x (A3- E>EEE) | x8 | x8 | x6 |] %25
V:3
 [A,,A,]3 [A,,A,] [A,,A,][A,,A,] [A,,E,]>[A,,E,] | [A,,A,]4 [A,,E,]4 | %2
w: ~ ~ ~ ~ ~ ~|~ ~|
 E,3 E, [E,G,][E,G,] [E,G,]>[E,G,] | [A,,A,]6 z2 | A,3 [A,B,] [A,C][A,,A,] [C,G,]>[C,C] | %5
w: ~ ~ ~ ~ ~ ~|~|~ ~ ~ ~ ~ ~|
 [F,C]4 [F,C]4 | [B,=D]3 [B,D] [B,D][B,D] B,>B, | [E,B,]6 z2 | %8
w: ~ ~|~ ~ ~ ~ ~ ~|~|
 [E,B,]3 [E,B,] [E,B,][E,B,] [E,A,]>E, | [A,,E,]4 [A,,A,]4 | %10
w: ~ ~ ~ ~ ~ ~|~ ~|
 [D,A,]3 [D,A,] [D,D][D,D] [D,A,]>[D,A,] | [A,,A,]6 z2 | %12
w: ~ ~ ~ ~ ~ ~|~|
 [A,,E,]3 [A,,E,] [A,,A,][A,C] [A,C]>[A,E] | [D,D]4 [D,B,]4 | [E,B,]3 [E,C] [E,D][E,G,] [E,A,]>E, | %15
w: ~ ~ ~ ~ ~ ~|~ ~|~ ~ ~ ~ ~ ~|
 [A,,E,]6 || E>D | D z C2 z3 x | z2 [D,A,]>[D,A,] [D,A,][D,A,] [D,F,]>[F,A,] | %19
w: ~|~ ~|~ I|was wait- ing, calm- ly wait-|
 [E,B,]3 [E,B,] [E,G,]2 [E,G,]2 | [A,,A,]6 E>D | D z C2 A,, z2 x | %22
w: ing, ~ ~ ~|~ ~ ~|~ ~ ~|
 z2 [D,A,]>[D,A,] [D,A,][D,A,] [D,A,]>[D,A,] | [E,A,]3 [E,C] [E,B,]2 [E,D]2 | [A,,C]6 |] %25
w: ~ I had trust- ed my|Re- deem- er, *||
V:4
 x8 | x8 | E,3 E, x4 | x8 | A,3 x5 | x8 | x6 B,>B, | x8 | x15/2 E,/ | x8 | x8 | x8 | x8 | x8 | %14
 x15/2 E,/ | x6 || x2 | x (C3 A,,>)A,, A,, x | x8 | x8 | x8 | x (C3- A,,>)A,, A,, x | x8 | x8 | %24
 x6 |] %25

